static/img/showcase/msq-safe-icp-wallet_logo.svg

<svg fill="none" height="150" viewBox="0 0 150 150" width="150" xmlns="http://www.w3.org/2000/svg"><path d="m0 0h150v150h-150z" fill="#e0ff25"/><g fill="#0a0b15"><path d="m47.8243 56.645-.8345-.043-9.839 14.2756-9.8389-14.2756-.8346.043v-.043h-8.4773v36.1191h8.4773v-23.0904l10.7174 15.1786 10.6296-15.2646v23.1764h8.4773v-36.1191h-8.4773z"/><path d="m72.9927 63.1808c1.4934 0 2.6793.387 3.6017 1.118.9224.774 1.5374 1.5909 1.8009 2.5369l8.3456-2.4079c-.7468-1.849-1.7131-3.3969-2.9869-4.6439-1.2298-1.247-2.7672-2.1929-4.5241-2.7949-1.757-.645-3.8214-.946-6.1494-.946-4.3045 0-7.5988.989-9.9707 2.9239-2.3719 1.935-3.5139 4.6439-3.5139 8.1268 0 1.806.3953 3.3969 1.142 4.7729s1.8009 2.5799 3.1625 3.5259c1.3617.946 2.9429 1.677 4.7877 2.1069l5.227 1.29c1.2738.344 2.2401.86 2.9429 1.505s1.0102 1.4189 1.0102 2.2789c0 1.118-.4831 1.978-1.4495 2.666-.9663.6879-2.1522 1.0319-3.6017.9889-1.4934 0-2.6794-.43-3.6457-1.1609-.9663-.731-1.6252-1.591-2.0205-2.623l-8.3895 2.322c.2197 1.1609.7468 2.2789 1.5813 3.2679.8346 1.032 1.9327 1.9349 3.2504 2.7519s2.8111 1.462 4.4363 1.892c1.6252.4729 3.3382.6879 5.1391.6879 2.899 0 5.3587-.4299 7.3792-1.3329s3.6017-2.107 4.6559-3.7409c1.0542-1.634 1.6252-3.5689 1.6252-5.8479 0-2.4939-.8346-4.7729-2.5037-6.7508-1.6691-1.978-3.997-3.3109-6.9839-4.0419l-5.2269-1.29c-1.142-.258-2.0644-.688-2.7233-1.2469-.6588-.559-1.0102-1.29-1.0102-2.15 0-1.2469.3953-2.1929 1.2298-2.8379.8346-.645 1.9766-.989 3.47-.989z"/><path d="m126.141 74.7475c0-3.6549-.835-6.8798-2.46-9.7177-1.669-2.838-3.909-5.0309-6.808-6.6219-2.899-1.5909-6.238-2.4079-9.971-2.4079-2.855 0-5.447.473-7.7746 1.376-2.328.9029-4.3485 2.1929-6.1054 3.9129-1.7131 1.6769-3.0747 3.6549-3.9971 5.9338-.9663 2.279-1.4056 4.7729-1.4056 7.5248 0 3.6119.8346 6.8368 2.4598 9.6318 1.6691 2.7949 3.9531 4.9878 6.8521 6.6218s6.2808 2.4079 10.0588 2.4079c3.558 0 6.72-.7309 9.487-2.1929l3.778 3.7839 5.271-5.0739-3.426-3.4399c.571-.688 1.186-1.3329 1.625-2.1069 1.625-2.795 2.459-6.0199 2.459-9.6318zm-14.276 1.505-5.446 4.9879 3.953 3.9129c-1.054.3439-2.196.5589-3.426.5589-2.065 0-3.909-.4729-5.535-1.3759-1.6248-.946-2.8985-2.236-3.777-3.9129-.9224-1.677-1.3617-3.5689-1.3617-5.7619 0-2.1929.4393-4.0419 1.3617-5.7188.9224-1.677 2.1522-2.967 3.734-3.9129 1.581-.946 3.426-1.419 5.49-1.419s3.909.473 5.49 1.419c1.582.9459 2.812 2.2359 3.734 3.9129.922 1.6769 1.362 3.5689 1.362 5.7188 0 2.15-.44 4.0849-1.318 5.7619l-4.217-4.2139z"/><path d="m136.594 85.4542c-.966-.9459-2.064-1.3759-3.382-1.3759-1.317 0-2.459.473-3.426 1.3759-.966.946-1.405 2.021-1.405 3.311 0 1.2899.483 2.4079 1.405 3.3539.967.9459 2.109 1.3759 3.426 1.3759 1.318 0 2.416-.473 3.382-1.3759.967-.946 1.406-2.064 1.406-3.3539 0-1.29-.483-2.365-1.406-3.311z"/></g></svg>

<svg width="150" height="150" viewBox="0 0 150 150" fill="none" xmlns="http://www.w3.org/2000/svg">
<rect width="150" height="150" fill="#E0FF25"/>
<path d="M47.8243 56.645L46.9898 56.602L37.1508 70.8776L27.3119 56.602L26.4773 56.645V56.602H18V92.7211H26.4773V69.6307L37.1947 84.8093L47.8243 69.5447V92.7211H56.3016V56.602H47.8243V56.645Z" fill="#0A0B15"/>
<path d="M72.9927 63.1808C74.4861 63.1808 75.672 63.5678 76.5944 64.2988C77.5168 65.0728 78.1318 65.8897 78.3953 66.8357L86.7409 64.4278C85.9941 62.5788 85.0278 61.0309 83.754 59.7839C82.5242 58.5369 80.9868 57.591 79.2299 56.989C77.4729 56.344 75.4085 56.043 73.0805 56.043C68.776 56.043 65.4817 57.032 63.1098 58.9669C60.7379 60.9019 59.5959 63.6108 59.5959 67.0937C59.5959 68.8997 59.9912 70.4906 60.7379 71.8666C61.4846 73.2426 62.5388 74.4465 63.9004 75.3925C65.2621 76.3385 66.8433 77.0695 68.6881 77.4994L73.9151 78.7894C75.1889 79.1334 76.1552 79.6494 76.858 80.2944C77.5608 80.9394 77.8682 81.7133 77.8682 82.5733C77.8682 83.6913 77.3851 84.5513 76.4187 85.2393C75.4524 85.9272 74.2665 86.2712 72.817 86.2282C71.3236 86.2282 70.1376 85.7982 69.1713 85.0673C68.205 84.3363 67.5461 83.4763 67.1508 82.4443L58.7613 84.7663C58.981 85.9272 59.5081 87.0452 60.3426 88.0342C61.1772 89.0662 62.2753 89.9691 63.593 90.7861C64.9107 91.6031 66.4041 92.2481 68.0293 92.6781C69.6545 93.151 71.3675 93.366 73.1684 93.366C76.0674 93.366 78.5271 92.9361 80.5476 92.0331C82.5681 91.1301 84.1493 89.9261 85.2035 88.2922C86.2577 86.6582 86.8287 84.7233 86.8287 82.4443C86.8287 79.9504 85.9941 77.6714 84.325 75.6935C82.6559 73.7155 80.328 72.3826 77.3411 71.6516L72.1142 70.3616C70.9722 70.1036 70.0498 69.6736 69.3909 69.1147C68.7321 68.5557 68.3807 67.8247 68.3807 66.9647C68.3807 65.7178 68.776 64.7718 69.6105 64.1268C70.4451 63.4818 71.5871 63.1378 73.0805 63.1378L72.9927 63.1808Z" fill="#0A0B15"/>
<path d="M126.141 74.7475C126.141 71.0926 125.306 67.8677 123.681 65.0298C122.012 62.1918 119.772 59.9989 116.873 58.4079C113.974 56.817 110.635 56 106.902 56C104.047 56 101.455 56.473 99.1274 57.376C96.7994 58.2789 94.7789 59.5689 93.022 61.2889C91.3089 62.9658 89.9473 64.9438 89.0249 67.2227C88.0586 69.5017 87.6193 71.9956 87.6193 74.7475C87.6193 78.3594 88.4539 81.5843 90.0791 84.3793C91.7482 87.1742 94.0322 89.3671 96.9312 91.0011C99.8302 92.6351 103.212 93.409 106.99 93.409C110.548 93.409 113.71 92.6781 116.477 91.2161L120.255 95L125.526 89.9261L122.1 86.4862C122.671 85.7982 123.286 85.1533 123.725 84.3793C125.35 81.5843 126.184 78.3594 126.184 74.7475H126.141ZM111.865 76.2525L106.419 81.2404L110.372 85.1533C109.318 85.4972 108.176 85.7122 106.946 85.7122C104.881 85.7122 103.037 85.2393 101.411 84.3363C99.7862 83.3903 98.5125 82.1003 97.634 80.4234C96.7116 78.7464 96.2723 76.8545 96.2723 74.6615C96.2723 72.4686 96.7116 70.6196 97.634 68.9427C98.5564 67.2657 99.7862 65.9757 101.368 65.0298C102.949 64.0838 104.794 63.6108 106.858 63.6108C108.922 63.6108 110.767 64.0838 112.348 65.0298C113.93 65.9757 115.16 67.2657 116.082 68.9427C117.004 70.6196 117.444 72.5116 117.444 74.6615C117.444 76.8115 117.004 78.7464 116.126 80.4234L111.909 76.2095L111.865 76.2525Z" fill="#0A0B15"/>
<path d="M136.594 85.4542C135.628 84.5083 134.53 84.0783 133.212 84.0783C131.895 84.0783 130.753 84.5513 129.786 85.4542C128.82 86.4002 128.381 87.4752 128.381 88.7652C128.381 90.0551 128.864 91.1731 129.786 92.1191C130.753 93.065 131.895 93.495 133.212 93.495C134.53 93.495 135.628 93.022 136.594 92.1191C137.561 91.1731 138 90.0551 138 88.7652C138 87.4752 137.517 86.4002 136.594 85.4542Z" fill="#0A0B15"/>
</svg>
